X:5637
T:Rory the Blacksmith from Ireland
O:england
B:Joyce, P. W.; "Old Irish Folk Music and Songs"
R:song air
L:1/8
M:6/8
K:D
"With spirit: time well marked."\
F/E/|D>ED DEF|EDD D2 F|A>Bc dcB|AB=c B2 A|
d>cB BAF|GFG A2 A|Bdc BAF|E3 D2||


